app/static/img/logo-white.svg

<svg width="4023" height="505" xmlns="http://www.w3.org/2000/svg"><g fill-rule="nonzero" fill="none"><path d="M1033.9 498.7c-24.1 0-48.3-.7-72.1-2.3-25.1-1.7-50.1-5.2-74.7-10.4V59c20.2-3.9 42.7-6.5 66.9-8.5 24.1-2 46.6-2.9 67.5-2.9 28.1 0 53.8 2 77.3 6.2 23.5 3.9 43.7 10.8 60.7 20.5 17 9.8 30.3 22.5 39.8 38.5 9.5 16 14.4 35.6 14.4 58.7 0 35.2-17 62.9-50.9 83.2 28.1 10.4 47 25.1 57.1 43.1 10.1 18.3 15.3 38.8 15.3 61.6 0 46.3-17 80.9-50.6 104.1-34.2 23.8-84.1 35.2-150.7 35.2zm-50.2-273h48.3c30.7 0 52.2-3.9 65.6-11.7 13-7.8 19.6-20.5 19.6-37.8 0-17.9-6.8-30.3-20.2-37.5-13.7-7.2-33.6-10.8-59.7-10.8-8.5 0-17.6 0-27.4.3-9.8.3-18.3.7-26.1 1.6-.1 0-.1 95.9-.1 95.9zm0 75.7v113.8c7.2 1 15 1.6 23.5 2 8.5.4 17.9.7 28.1.7 29.7 0 53.5-4.2 71.8-12.7 18.3-8.5 27.4-24.1 27.4-47 0-20.2-7.5-34.9-22.8-43.4-15.3-8.8-37.2-13-65.6-13h-62.3v-.4h-.1zM1376.4 62.3c0 17.3-5.5 31-17 41.1-11.1 10.1-24.5 15-39.8 15-14.7.2-28.9-5.1-39.8-15-11.1-10.1-17-23.5-17-41.1 0-17.3 5.5-31 17-41.1 10.9-9.8 25.1-15.2 39.8-15 14.7-.2 28.9 5.1 39.8 15 11.4 10.1 17 23.8 17 41.1zm-9.1 430.9h-94.6V158.8h94.6v334.4zM1418.2 75.6l94.6-15.3v98.5h113.8v78.9h-113.8v117.4c0 19.9 3.6 35.9 10.4 47.6 6.8 11.7 21.2 17.9 42.4 17.9 10.5-.1 21-1 31.3-2.9 10.1-1.8 20-4.4 29.7-7.8l13.4 73.7c-12.4 5-25.2 9.1-38.2 12.1-14 3.3-31 5.2-51.5 5.2-25.8 0-47.3-3.6-64.3-10.4-17-6.8-30.7-16.6-40.8-29.4-10.1-12.4-17.3-27.7-21.2-45.3-4.2-19.4-6.3-39.2-6.2-59V75.6h.4zM1640 326.1c-.2-23.2 3.8-46.3 11.7-68.2 7.4-20.7 18.9-39.7 33.9-55.8 14.7-16 32.9-28.4 54.1-37.8 21.2-9.5 45.3-14 72.4-14 17.9 0 34.2 1.6 48.9 4.9 14.8 3.2 29.2 7.8 43.1 13.7l-19.6 75.7c-9.6-3.5-19.4-6.5-29.4-8.8-11.7-2.7-23.6-4-35.6-3.9-28.1 0-48.9 8.8-62.6 26.1-13.7 17.3-20.5 40.1-20.5 68.5 0 30 6.5 53.5 19.2 69.8 13 16.6 35.6 24.8 67.5 24.8 12.4 0 24.7-1.1 36.9-3.3 12.4-1.9 24.6-5.3 36.2-10.1l13.4 77.6c-13.4 5.4-27.2 9.4-41.4 12.1-18.1 3.5-36.4 5.3-54.8 5.2-30.7 0-56.8-4.6-78.9-13.7-22.2-9.1-40.1-21.5-54.5-37.2-14.4-15.7-24.5-34.2-31-55.5-5.9-22.9-8.9-46.4-9-70.1zM2235.6 325.5c0 26.4-3.9 50.2-11.4 72.1-7.5 21.9-18.6 40.4-32.9 55.8-14.6 15.5-32.3 27.7-51.9 35.9-20.3 8.5-42.7 12.7-67.5 12.7-24.5 0-47-4.2-67.2-12.7-19.7-8.1-37.3-20.4-51.9-35.9-14.4-15.3-25.8-34.2-33.6-55.8-8.2-21.9-12.1-46-12.1-72.1 0-26.4 4.2-50.2 12.4-71.8 8.2-21.5 19.6-40.1 34.2-55.1 14.8-15.3 32.5-27.5 52.2-35.6 20.2-8.5 42.1-12.7 65.9-12.7 24.1 0 46.3 4.2 66.5 12.7 20.2 8.5 37.5 20.2 51.9 35.6 14.8 15.9 26.3 34.6 33.6 55.1 7.6 21.6 11.8 45.4 11.8 71.8zm-96.5 0c0-29.4-5.9-52.2-17.6-68.8-11.7-16.6-28.4-25.1-49.9-25.1s-38.5 8.5-50.2 25.1c-11.7 16.6-17.9 39.8-17.9 68.8 0 29.4 5.9 52.5 17.9 69.5 11.7 17.3 28.7 25.8 50.2 25.8 21.5 0 38.2-8.5 49.9-25.8 11.7-17.3 17.6-40.5 17.6-69.5zM2377.2 62.3c0 17.3-5.5 31-17 41.1-11.1 10.1-24.5 15-39.8 15-14.7.2-28.9-5.1-39.8-15-11.1-10.1-17-23.5-17-41.1 0-17.3 5.5-31 17-41.1 10.9-9.8 25.1-15.2 39.8-15 14.7-.2 28.9 5.1 39.8 15 11.4 10.1 17 23.8 17 41.1zm-8.8 430.9h-94.6V158.8h94.6v334.4zM2422.2 170.2c16-4.6 36.9-9.1 62.3-13 26.4-4.1 53.1-6.2 79.9-6.2 28.4 0 51.9 3.6 70.8 11.1s33.9 17.9 44.7 31.3c11.1 13.7 18.9 29.7 23.5 48.3 4.6 18.6 6.8 39.5 6.8 62.3v188.9h-94.6V315.4c0-30.7-3.9-52.2-12.1-64.9-8.2-12.7-23.2-18.9-45-18.9-6.8 0-14 .3-21.5 1s-14.4 1.3-20.2 2.3v258h-94.6V170.2zM2968.9 502c-71.8 0-126.2-19.9-163.7-59.7-37.5-39.8-56.1-96.2-56.1-169.6 0-36.5 5.9-68.8 17.3-97.5 11.4-28.7 27.1-52.8 47-72.4 20.2-19.8 44.5-35.1 71.1-44.7 27.4-10.1 57.4-15.3 89.7-15.3 18.6 0 35.6 1.3 50.9 4.2 13.6 2.2 27 5.4 40.1 9.5 9.8 3 19.4 6.7 28.7 11.1 7.5 3.9 13 6.8 16.6 8.8l-28.7 79.9c-15.1-7.8-30.9-13.9-47.3-18.3-17.9-5.2-38.5-7.5-61.3-7.5-15.2 0-30.3 2.6-44.7 7.5-14.6 5.2-27.8 13.6-38.8 24.5-11.1 11.1-20.2 25.8-27.1 43.4-6.8 17.9-10.1 39.5-10.1 64.9-.1 19.1 2.1 38.2 6.5 56.8 4.6 17.6 11.7 32.6 21.5 45.3 10.4 13.1 23.8 23.5 39.1 30.3 16 7.5 35.6 11.1 58.4 11.1 13 0 25.9-.8 38.8-2.6 10.4-1.4 20.6-3.4 30.7-6.2 8-2 15.9-4.6 23.5-7.8 6.8-2.9 13-5.9 18.3-8.2l27.4 79.6c-14 8.5-33.6 16-59 22.8-25.9 6.8-55.5 10.1-88.8 10.1zM3265.1 150c28.1 0 51.2 3.3 69.8 9.5 18.6 6.2 33.6 15.3 44.7 27.4 11.4 12.2 19.5 27 23.8 43.1 4.6 17 6.8 35.9 6.8 56.4v197c-13.7 2.9-32.3 6.5-56.4 10.4-24.1 3.9-53.5 6.2-87.7 6.2-21.5 0-41.1-2-58.7-5.9-17.6-3.9-32.6-10.1-45.3-18.6-12.6-8.6-22.7-20.2-29.4-33.9-6.8-14-10.1-31-10.1-51.5 0-19.6 3.9-35.9 11.7-49.6 7.4-13.3 18.2-24.4 31.3-32.3 13-8.2 28.1-14 45-17.6 17.4-3.7 35.1-5.5 52.8-5.5 12.4 0 23.2.7 32.6 1.6 9.5 1 17.3 2.3 23.2 4.2v-8.8c0-16-4.9-29-14.7-38.8-9.8-9.8-26.7-14.7-50.9-14.7-15.9 0-31.8 1.2-47.6 3.6-15.7 2.3-29.4 5.5-40.8 9.8l-12.1-76.3c5.5-1.6 12.4-3.6 20.5-5.5 8.2-2 17.3-3.6 27.1-5.2s19.9-2.6 30.7-3.9c11.5-.4 22.6-1.1 33.7-1.1zm7.5 276.9c9.5 0 18.3-.3 26.7-.7 6.8-.1 13.5-.8 20.2-2v-71.8c-3.9-1-9.5-1.6-17.3-2.6-6.9-.9-13.9-1.3-20.9-1.3-8.4.1-16.8.6-25.1 1.6-7.8 1-14.7 2.9-20.5 6.2-5.7 2.7-10.5 6.9-14 12.1-3.5 5.7-5.3 12.2-5.2 18.9 0 14.7 4.9 25.1 15 30.7 10.1 6.3 23.8 8.9 41.1 8.9zM3557.3 425.3c17.3 0 29.7-1.6 36.9-5.2 7.2-3.3 10.8-10.1 10.8-19.6 0-7.5-4.6-14.4-14-19.9-9.5-5.9-23.5-12.1-42.7-19.2-14.7-5.5-28.4-11.1-40.4-17.3-12.1-5.9-22.5-13-30.7-21.2-8.6-8.4-15.2-18.5-19.6-29.7-4.6-11.4-6.8-25.1-6.8-41.4 0-31.3 11.7-56.1 34.9-74.4 23.2-18.3 55.1-27.4 95.9-27.4 19.6 0 39.1 1.9 58.4 5.5 18.6 3.6 33.6 7.5 44.4 11.7l-16.6 73.7c-11.8-4.1-23.7-7.5-35.9-10.1-14.3-3.1-28.8-4.7-43.4-4.6-29.7 0-44.4 8.2-44.4 24.8-.1 3.5.6 6.9 2 10.1 1.7 3.4 4.3 6.4 7.5 8.5 5 3.4 10.2 6.3 15.7 8.8 8.1 4 16.5 7.4 25.1 10.4 20.9 7.8 37.8 15.3 51.5 22.8 13.7 7.5 24.1 15.7 32 24.1 7.5 8.3 13.2 18 16.6 28.7 3.3 10.4 4.9 22.8 4.9 36.9 0 32.9-12.4 58.1-37.2 74.7-24.8 17-59.7 25.4-105 25.4-29.7 0-54.5-2.6-74-7.5-19.6-5.2-33.3-9.5-41.1-12.7l16-77c16.1 6.3 32.7 11.3 49.6 15 16.3 4.1 32.9 6.1 49.6 6.1zM3734.5 493.2V15.3L3829.1 0v160.2c8-2.5 16.2-4.6 24.5-6.2 9.5-1.9 19.3-2.9 29-2.9 27.1 0 49.6 3.6 67.5 11.1s32.3 17.9 43.1 31.3c10.8 13.7 18.3 29.7 22.8 48.3 4.6 18.6 6.5 39.5 6.5 62.3V493h-94.6V315.4c0-30.7-3.9-52.2-11.7-64.9-7.8-12.7-22.5-18.9-43.4-18.9-8-.1-16 .7-23.8 2.3-7.5 1.6-14 2.9-19.9 4.9v254.1h-94.6v.3zM578.6 504.8c137.8-96.6 171.2-286.5 74.6-424.3-20.3-29-45.6-54.3-74.6-74.6h228.9v498.9H578.6zM99.4 255.4c-.1 99.3 48.4 192.5 129.8 249.4H0V6h229.2C147.8 62.9 99.3 156 99.4 255.4z" fill="#FFF"/><circle fill="#FFF" cx="403.8" cy="255.2" r="249.2"/><path d="M481.6 171.8c-12.5-28.4-41.2-34.3-76.4-28.5l-11.3-43.8-26.7 6.9 11.1 43.7c-7 1.8-14.2 3.3-21.3 5.3L345.8 112l-26.7 6.9 11.3 43.8c-5.7 1.6-53.7 14-53.7 14l7.4 28.5s19.6-5.5 19.4-5c10.8-2.8 15.9 2.6 18.4 7.7l31 120c.4 3.5-.2 9.5-7.7 11.4.4.2-19.4 5-19.4 5l2.9 33.2s47.5-12.2 53.8-13.7l11.5 44.3 26.6-6.9-11.4-44.6c7.4-1.7 14.4-3.5 21.4-5.3l11.4 44.4 26.7-6.9-11.4-44.2c41-10 70-35.8 64-75.4-3.8-23.8-29.8-43.4-51.5-45.6 13.2-12 20-29.3 11.8-51.8zm-12.9 104.4c5.3 39.2-49.1 44-67.2 48.7l-15.7-58.6c18.2-4.8 74-24.7 82.9 9.9zm-32.8-79.8c5.6 34.8-40.9 38.9-56 42.8L365.7 186c15.1-3.9 58.8-21.8 70.2 10.4z" fill="#000"/></g></svg>

<?xml version="1.0" encoding="UTF-8"?>
<svg width="4023px" height="505px" viewBox="0 0 4023 505" version="1.1" xmlns="http://www.w3.org/2000/svg" xmlns:xlink="http://www.w3.org/1999/xlink">
    <title>logo-white</title>
    <g id="Page-1" stroke="none" stroke-width="1" fill="none" fill-rule="evenodd">
        <g id="logo-white" fill-rule="nonzero">
            <path d="M1033.9,498.7 C1009.8,498.7 985.6,498 961.8,496.4 C936.7,494.7 911.7,491.2 887.1,486 L887.1,59 C907.3,55.1 929.8,52.5 954,50.5 C978.1,48.5 1000.6,47.6 1021.5,47.6 C1049.6,47.6 1075.3,49.6 1098.8,53.8 C1122.3,57.7 1142.5,64.6 1159.5,74.3 C1176.5,84.1 1189.8,96.8 1199.3,112.8 C1208.8,128.8 1213.7,148.4 1213.7,171.5 C1213.7,206.7 1196.7,234.4 1162.8,254.7 C1190.9,265.1 1209.8,279.8 1219.9,297.8 C1230,316.1 1235.2,336.6 1235.2,359.4 C1235.2,405.7 1218.2,440.3 1184.6,463.5 C1150.4,487.3 1100.5,498.7 1033.9,498.7 Z M983.7,225.7 L1032,225.7 C1062.7,225.7 1084.2,221.8 1097.6,214 C1110.6,206.2 1117.2,193.5 1117.2,176.2 C1117.2,158.3 1110.4,145.9 1097,138.7 C1083.3,131.5 1063.4,127.9 1037.3,127.9 C1028.8,127.9 1019.7,127.9 1009.9,128.2 C1000.1,128.5 991.6,128.9 983.8,129.8 C983.7,129.8 983.7,225.7 983.7,225.7 L983.7,225.7 Z M983.7,301.4 L983.7,415.2 C990.9,416.2 998.7,416.8 1007.2,417.2 C1015.7,417.6 1025.1,417.9 1035.3,417.9 C1065,417.9 1088.8,413.7 1107.1,405.2 C1125.4,396.7 1134.5,381.1 1134.5,358.2 C1134.5,338 1127,323.3 1111.7,314.8 C1096.4,306 1074.5,301.8 1046.1,301.8 L983.8,301.8 L983.8,301.4 L983.7,301.4 L983.7,301.4 Z" id="Shape" fill="#FFFFFF"></path>
            <path d="M1376.4,62.3 C1376.4,79.6 1370.9,93.3 1359.4,103.4 C1348.3,113.5 1334.9,118.4 1319.6,118.4 C1304.9,118.6 1290.7,113.3 1279.8,103.4 C1268.7,93.3 1262.8,79.9 1262.8,62.3 C1262.8,45 1268.3,31.3 1279.8,21.2 C1290.7,11.4 1304.9,6 1319.6,6.2 C1334.3,6 1348.5,11.3 1359.4,21.2 C1370.8,31.3 1376.4,45 1376.4,62.3 Z M1367.3,493.2 L1272.7,493.2 L1272.7,158.8 L1367.3,158.8 L1367.3,493.2 Z" id="Shape" fill="#FFFFFF"></path>
            <path d="M1418.2,75.6 L1512.8,60.3 L1512.8,158.8 L1626.6,158.8 L1626.6,237.7 L1512.8,237.7 L1512.8,355.1 C1512.8,375 1516.4,391 1523.2,402.7 C1530,414.4 1544.4,420.6 1565.6,420.6 C1576.1,420.5 1586.6,419.6 1596.9,417.7 C1607,415.9 1616.9,413.3 1626.6,409.9 L1640,483.6 C1627.6,488.6 1614.8,492.7 1601.8,495.7 C1587.8,499 1570.8,500.9 1550.3,500.9 C1524.5,500.9 1503,497.3 1486,490.5 C1469,483.7 1455.3,473.9 1445.2,461.1 C1435.1,448.7 1427.9,433.4 1424,415.8 C1419.8,396.4 1417.7,376.6 1417.8,356.8 L1417.8,75.6 L1418.2,75.6 Z" id="Path" fill="#FFFFFF"></path>
            <path d="M1640,326.1 C1639.8,302.9 1643.8,279.8 1651.7,257.9 C1659.1,237.2 1670.6,218.2 1685.6,202.1 C1700.3,186.1 1718.5,173.7 1739.7,164.3 C1760.9,154.8 1785,150.3 1812.1,150.3 C1830,150.3 1846.3,151.9 1861,155.2 C1875.8,158.4 1890.2,163 1904.1,168.9 L1884.5,244.6 C1874.9,241.1 1865.1,238.1 1855.1,235.8 C1843.4,233.1 1831.5,231.8 1819.5,231.9 C1791.4,231.9 1770.6,240.7 1756.9,258 C1743.2,275.3 1736.4,298.1 1736.4,326.5 C1736.4,356.5 1742.9,380 1755.6,396.3 C1768.6,412.9 1791.2,421.1 1823.1,421.1 C1835.5,421.1 1847.8,420 1860,417.8 C1872.4,415.9 1884.6,412.5 1896.2,407.7 L1909.6,485.3 C1896.2,490.7 1882.4,494.7 1868.2,497.4 C1850.1,500.9 1831.8,502.7 1813.4,502.6 C1782.7,502.6 1756.6,498 1734.5,488.9 C1712.3,479.8 1694.4,467.4 1680,451.7 C1665.6,436 1655.5,417.5 1649,396.2 C1643.1,373.3 1640.1,349.8 1640,326.1 Z" id="Path" fill="#FFFFFF"></path>
            <path d="M2235.6,325.5 C2235.6,351.9 2231.7,375.7 2224.2,397.6 C2216.7,419.5 2205.6,438 2191.3,453.4 C2176.7,468.9 2159,481.1 2139.4,489.3 C2119.1,497.8 2096.7,502 2071.9,502 C2047.4,502 2024.9,497.8 2004.7,489.3 C1985,481.2 1967.4,468.9 1952.8,453.4 C1938.4,438.1 1927,419.2 1919.2,397.6 C1911,375.7 1907.1,351.6 1907.1,325.5 C1907.1,299.1 1911.3,275.3 1919.5,253.7 C1927.7,232.2 1939.1,213.6 1953.7,198.6 C1968.5,183.3 1986.2,171.1 2005.9,163 C2026.1,154.5 2048,150.3 2071.8,150.3 C2095.9,150.3 2118.1,154.5 2138.3,163 C2158.5,171.5 2175.8,183.2 2190.2,198.6 C2205,214.5 2216.5,233.2 2223.8,253.7 C2231.4,275.3 2235.6,299.1 2235.6,325.5 Z M2139.1,325.5 C2139.1,296.1 2133.2,273.3 2121.5,256.7 C2109.8,240.1 2093.1,231.6 2071.6,231.6 C2050.1,231.6 2033.1,240.1 2021.4,256.7 C2009.7,273.3 2003.5,296.5 2003.5,325.5 C2003.5,354.9 2009.4,378 2021.4,395 C2033.1,412.3 2050.1,420.8 2071.6,420.8 C2093.1,420.8 2109.8,412.3 2121.5,395 C2133.2,377.7 2139.1,354.5 2139.1,325.5 Z" id="Shape" fill="#FFFFFF"></path>
            <path d="M2377.2,62.3 C2377.2,79.6 2371.7,93.3 2360.2,103.4 C2349.1,113.5 2335.7,118.4 2320.4,118.4 C2305.7,118.6 2291.5,113.3 2280.6,103.4 C2269.5,93.3 2263.6,79.9 2263.6,62.3 C2263.6,45 2269.1,31.3 2280.6,21.2 C2291.5,11.4 2305.7,6 2320.4,6.2 C2335.1,6 2349.3,11.3 2360.2,21.2 C2371.6,31.3 2377.2,45 2377.2,62.3 Z M2368.4,493.2 L2273.8,493.2 L2273.8,158.8 L2368.4,158.8 L2368.4,493.2 Z" id="Shape" fill="#FFFFFF"></path>
            <path d="M2422.2,170.2 C2438.2,165.6 2459.1,161.1 2484.5,157.2 C2510.9,153.1 2537.6,151 2564.4,151 C2592.8,151 2616.3,154.6 2635.2,162.1 C2654.1,169.6 2669.1,180 2679.9,193.4 C2691,207.1 2698.8,223.1 2703.4,241.7 C2708,260.3 2710.2,281.2 2710.2,304 L2710.2,492.9 L2615.6,492.9 L2615.6,315.4 C2615.6,284.7 2611.7,263.2 2603.5,250.5 C2595.3,237.8 2580.3,231.6 2558.5,231.6 C2551.7,231.6 2544.5,231.9 2537,232.6 C2529.5,233.3 2522.6,233.9 2516.8,234.9 L2516.8,492.9 L2422.2,492.9 L2422.2,170.2 L2422.2,170.2 Z" id="Path" fill="#FFFFFF"></path>
            <path d="M2968.9,502 C2897.1,502 2842.7,482.1 2805.2,442.3 C2767.7,402.5 2749.1,346.1 2749.1,272.7 C2749.1,236.2 2755,203.9 2766.4,175.2 C2777.8,146.5 2793.5,122.4 2813.4,102.8 C2833.6,83 2857.9,67.7 2884.5,58.1 C2911.9,48 2941.9,42.8 2974.2,42.8 C2992.8,42.8 3009.8,44.1 3025.1,47 C3038.7,49.2 3052.1,52.4 3065.2,56.5 C3075,59.5 3084.6,63.2 3093.9,67.6 C3101.4,71.5 3106.9,74.4 3110.5,76.4 L3081.8,156.3 C3066.7,148.5 3050.9,142.4 3034.5,138 C3016.6,132.8 2996,130.5 2973.2,130.5 C2958,130.5 2942.9,133.1 2928.5,138 C2913.9,143.2 2900.7,151.6 2889.7,162.5 C2878.6,173.6 2869.5,188.3 2862.6,205.9 C2855.8,223.8 2852.5,245.4 2852.5,270.8 C2852.4,289.9 2854.6,309 2859,327.6 C2863.6,345.2 2870.7,360.2 2880.5,372.9 C2890.9,386 2904.3,396.4 2919.6,403.2 C2935.6,410.7 2955.2,414.3 2978,414.3 C2991,414.3 3003.9,413.5 3016.8,411.7 C3027.2,410.3 3037.4,408.3 3047.5,405.5 C3055.5,403.5 3063.4,400.9 3071,397.7 C3077.8,394.8 3084,391.8 3089.3,389.5 L3116.7,469.1 C3102.7,477.6 3083.1,485.1 3057.7,491.9 C3031.8,498.7 3002.2,502 2968.9,502 Z" id="Path" fill="#FFFFFF"></path>
            <path d="M3265.1,150 C3293.2,150 3316.3,153.3 3334.9,159.5 C3353.5,165.7 3368.5,174.8 3379.6,186.9 C3391,199.1 3399.1,213.9 3403.4,230 C3408,247 3410.2,265.9 3410.2,286.4 L3410.2,483.4 C3396.5,486.3 3377.9,489.9 3353.8,493.8 C3329.7,497.7 3300.3,500 3266.1,500 C3244.6,500 3225,498 3207.4,494.1 C3189.8,490.2 3174.8,484 3162.1,475.5 C3149.5,466.9 3139.4,455.3 3132.7,441.6 C3125.9,427.6 3122.6,410.6 3122.6,390.1 C3122.6,370.5 3126.5,354.2 3134.3,340.5 C3141.7,327.2 3152.5,316.1 3165.6,308.2 C3178.6,300 3193.7,294.2 3210.6,290.6 C3228,286.9 3245.7,285.1 3263.4,285.1 C3275.8,285.1 3286.6,285.8 3296,286.7 C3305.5,287.7 3313.3,289 3319.2,290.9 L3319.2,282.1 C3319.2,266.1 3314.3,253.1 3304.5,243.3 C3294.7,233.5 3277.8,228.6 3253.6,228.6 C3237.7,228.6 3221.8,229.8 3206,232.2 C3190.3,234.5 3176.6,237.7 3165.2,242 L3153.1,165.7 C3158.6,164.1 3165.5,162.1 3173.6,160.2 C3181.8,158.2 3190.9,156.6 3200.7,155 C3210.5,153.4 3220.6,152.4 3231.4,151.1 C3242.9,150.7 3254,150 3265.1,150 Z M3272.6,426.9 C3282.1,426.9 3290.9,426.6 3299.3,426.2 C3306.1,426.1 3312.8,425.4 3319.5,424.2 L3319.5,352.4 C3315.6,351.4 3310,350.8 3302.2,349.8 C3295.3,348.9 3288.3,348.5 3281.3,348.5 C3272.9,348.6 3264.5,349.1 3256.2,350.1 C3248.4,351.1 3241.5,353 3235.7,356.3 C3230,359 3225.2,363.2 3221.7,368.4 C3218.2,374.1 3216.4,380.6 3216.5,387.3 C3216.5,402 3221.4,412.4 3231.5,418 C3241.6,424.3 3255.3,426.9 3272.6,426.9 Z" id="Shape" fill="#FFFFFF"></path>
            <path d="M3557.3,425.3 C3574.6,425.3 3587,423.7 3594.2,420.1 C3601.4,416.8 3605,410 3605,400.5 C3605,393 3600.4,386.1 3591,380.6 C3581.5,374.7 3567.5,368.5 3548.3,361.4 C3533.6,355.9 3519.9,350.3 3507.9,344.1 C3495.8,338.2 3485.4,331.1 3477.2,322.9 C3468.6,314.5 3462,304.4 3457.6,293.2 C3453,281.8 3450.8,268.1 3450.8,251.8 C3450.8,220.5 3462.5,195.7 3485.7,177.4 C3508.9,159.1 3540.8,150 3581.6,150 C3601.2,150 3620.7,151.9 3640,155.5 C3658.6,159.1 3673.6,163 3684.4,167.2 L3667.8,240.9 C3656,236.8 3644.1,233.4 3631.9,230.8 C3617.6,227.7 3603.1,226.1 3588.5,226.2 C3558.8,226.2 3544.1,234.4 3544.1,251 C3544,254.5 3544.7,257.9 3546.1,261.1 C3547.8,264.5 3550.4,267.5 3553.6,269.6 C3558.6,273 3563.8,275.9 3569.3,278.4 C3577.4,282.4 3585.8,285.8 3594.4,288.8 C3615.3,296.6 3632.2,304.1 3645.9,311.6 C3659.6,319.1 3670,327.3 3677.9,335.7 C3685.4,344 3691.1,353.7 3694.5,364.4 C3697.8,374.8 3699.4,387.2 3699.4,401.3 C3699.4,434.2 3687,459.4 3662.2,476 C3637.4,493 3602.5,501.4 3557.2,501.4 C3527.5,501.4 3502.7,498.8 3483.2,493.9 C3463.6,488.7 3449.9,484.4 3442.1,481.2 L3458.1,404.2 C3474.2,410.5 3490.8,415.5 3507.7,419.2 C3524,423.3 3540.6,425.3 3557.3,425.3 Z" id="Path" fill="#FFFFFF"></path>
            <path d="M3734.5,493.2 L3734.5,15.3 L3829.1,0 L3829.1,160.2 C3837.1,157.7 3845.3,155.6 3853.6,154 C3863.1,152.1 3872.9,151.1 3882.6,151.1 C3909.7,151.1 3932.2,154.7 3950.1,162.2 C3968,169.7 3982.4,180.1 3993.2,193.5 C4004,207.2 4011.5,223.2 4016,241.8 C4020.6,260.4 4022.5,281.3 4022.5,304.1 L4022.5,493 L3927.9,493 L3927.9,315.4 C3927.9,284.7 3924,263.2 3916.2,250.5 C3908.4,237.8 3893.7,231.6 3872.8,231.6 C3864.8,231.5 3856.8,232.3 3849,233.9 C3841.5,235.5 3835,236.8 3829.1,238.8 L3829.1,492.9 L3734.5,492.9 L3734.5,493.2 Z" id="Path" fill="#FFFFFF"></path>
            <path d="M578.6,504.8 C716.4,408.2 749.8,218.3 653.2,80.5 C632.9,51.5 607.6,26.2 578.6,5.9 L807.5,5.9 L807.5,504.8 L578.6,504.8 Z" id="Path" fill="#FFFFFF"></path>
            <path d="M99.4,255.4 C99.3,354.7 147.8,447.9 229.2,504.8 L0,504.8 L0,6 L229.2,6 C147.8,62.9 99.3,156 99.4,255.4 Z" id="Path" fill="#FFFFFF"></path>
            <circle id="Oval" fill="#FFFFFF" cx="403.8" cy="255.2" r="249.2"></circle>
            <path d="M481.6,171.8 C469.1,143.4 440.4,137.5 405.2,143.3 L393.9,99.5 L367.2,106.4 L378.3,150.1 C371.3,151.9 364.1,153.4 357,155.4 L345.8,112 L319.1,118.9 L330.4,162.7 C324.7,164.3 276.7,176.7 276.7,176.7 L284.1,205.2 C284.1,205.2 303.7,199.7 303.5,200.2 C314.3,197.4 319.4,202.8 321.9,207.9 L352.9,327.9 C353.3,331.4 352.7,337.4 345.2,339.3 C345.6,339.5 325.8,344.3 325.8,344.3 L328.7,377.5 C328.7,377.5 376.2,365.3 382.5,363.8 L394,408.1 L420.6,401.2 L409.2,356.6 C416.6,354.9 423.6,353.1 430.6,351.3 L442,395.7 L468.7,388.8 L457.3,344.6 C498.3,334.6 527.3,308.8 521.3,269.2 C517.5,245.4 491.5,225.8 469.8,223.6 C483,211.6 489.8,194.3 481.6,171.8 L481.6,171.8 Z M468.7,276.2 C474,315.4 419.6,320.2 401.5,324.9 L385.8,266.3 C404,261.5 459.8,241.6 468.7,276.2 Z M435.9,196.4 C441.5,231.2 395,235.3 379.9,239.2 L365.7,186 C380.8,182.1 424.5,164.2 435.9,196.4 Z" id="symbol_1_" fill="#000000"></path>
        </g>
    </g>
</svg>
